; generated by PrusaSlicer 2.2.0+win64 on 2020-07-29 at 16:18:30 UTC


;
;

;
;
; 

; external perimeters extrusion width = 0.45mm
; perimeters extrusion width = 0.45mm
; infill extrusion width = 0.45mm
; solid infill extrusion width = 0.45mm
; top infill extrusion width = 0.40mm
; first layer extrusion width = 0.42mm

M73 P0 R30
M201 X1250 Y1250 Z400 E5000 ; sets maximum accelerations, mm/sec^2
M203 X180 Y180 Z12 E80 ; sets maximum feedrates, mm/sec
M204 P1250 R1250 T1250 ; sets acceleration (P, T) and retract acceleration (R), mm/sec^2
M205 X8.00 Y8.00 Z2.00 E10.00 ; sets the jerk limits, mm/sec
M205 S0 T0 ; sets the minimum extruding and travel feed rate, mm/sec
M107
G90 ; use absolute coordinates
M83 ; extruder relative mode
M104 S170 ; set extruder temp for bed leveling
M140 S60 ; set bed temp
M109 R170 ; wait for bed leveling temp
M190 S60 ; wait for bed temp
G28 ; home all without mesh bed level
G29 ; mesh bed leveling 
M104 S215 ; set extruder temp
G92 E0.0
G1 Y-2.0 X179 F2400
G1 Z3 F720
M109 S215 ; wait for extruder temp

; intro line
G1 X170 F1000
G1 Z0.2 F720
G1 X110.0 E8.0 F900
M73 P0 R30
G1 X40.0 E10.0 F700
G92 E0.0

M221 S95 ; set flow
G21 ; set units to millimeters
G90 ; use absolute coordinates
M83 ; use relative distances for extrusion
M900 K0.2 ; Filament gcode
;BEFORE_LAYER_CHANGE
G92 E0.0
;0.2


G1 Z0.200 F9000.000
;AFTER_LAYER_CHANGE
;0.2
G1 E-3.20000 F4200.00000
G1 Z0.400 F9000.000
G1 X84.816 Y87.353
G1 Z0.200
G1 E3.20000 F2400.00000
M204 S800
G1 F900
G1 X85.533 Y86.636 E0.03179
G1 X86.130 Y86.208 E0.02302
G1 X86.906 Y85.819 E0.02725
G1 X87.593 Y85.593 E0.02267
G1 X88.841 Y85.361 E0.03979
G1 X90.004 Y85.302 E0.03652
G1 X91.603 Y85.422 E0.05029
G1 X92.826 Y85.716 E0.03942
G1 X94.004 Y86.290 E0.04111
G1 X94.909 Y87.044 E0.03693
G1 X95.586 Y87.968 E0.03590
G1 X95.990 Y89.095 E0.03754
G1 X96.089 Y90.153 E0.03333
G1 X95.895 Y91.259 E0.03519
G1 X95.506 Y92.177 E0.03127
G1 X94.902 Y92.963 E0.03106
G1 X94.028 Y93.695 E0.03574
G1 X92.918 Y94.251 E0.03894
G1 X91.647 Y94.572 E0.04109
G1 X90.074 Y94.697 E0.04949
G1 X88.814 Y94.636 E0.03954
G1 X87.406 Y94.358 E0.04500
G1 X86.697 Y94.086 E0.02380
G1 X85.759 Y93.547 E0.03393
G1 X85.003 Y92.864 E0.03193
G1 X84.502 Y92.190 E0.02636
G1 X84.149 Y91.403 E0.02702
G1 X83.927 Y90.441 E0.03095
G1 X83.923 Y89.596 E0.02652
G1 X84.105 Y88.740 E0.02742
G1 X84.394 Y88.007 E0.02472
G1 X84.783 Y87.404 E0.02251
M204 S1250
G1 X85.099 Y87.615 F9000.000
M204 S800
G1 F900
G1 X85.149 Y87.541 E0.00282
G1 X85.815 Y86.891 E0.02917
G1 X86.369 Y86.506 E0.02115
G1 X87.212 Y86.104 E0.02928
G1 X88.179 Y85.846 E0.03138
G1 X90.005 Y85.679 E0.05749
G1 X91.541 Y85.794 E0.04831
G1 X92.685 Y86.066 E0.03686
G1 X93.798 Y86.605 E0.03878
G1 X94.638 Y87.306 E0.03432
G1 X95.265 Y88.167 E0.03339
G1 X95.637 Y89.238 E0.03553
G1 X95.714 Y90.222 E0.03095
G1 X95.512 Y91.224 E0.03204
G1 X95.139 Y92.057 E0.02862
G1 X94.567 Y92.763 E0.02850
G1 X93.759 Y93.419 E0.03263
G1 X92.656 Y93.944 E0.03830
G1 X91.539 Y94.207 E0.03596
G1 X90.023 Y94.321 E0.04767
G1 X88.841 Y94.259 E0.03712
G1 X87.443 Y93.976 E0.04472
G1 X86.496 Y93.562 E0.03241
G1 X85.952 Y93.220 E0.02014
G1 X85.257 Y92.583 E0.02957
G1 X84.801 Y91.955 E0.02433
G1 X84.492 Y91.237 E0.02450
G1 X84.296 Y90.342 E0.02873
G1 X84.306 Y89.571 E0.02418
G1 X84.488 Y88.776 E0.02556
G1 X84.758 Y88.124 E0.02213
G1 X85.066 Y87.665 E0.01732
M204 S1250
G1 X85.481 Y87.732 F9000.000
M204 S800
G1 F900
G1 X86.094 Y87.149 E0.02652
G1 X86.601 Y86.809 E0.01916
G1 X87.424 Y86.427 E0.02844
G1 X88.284 Y86.208 E0.02781
G1 X90.005 Y86.056 E0.05418
G1 X91.484 Y86.166 E0.04650
G1 X92.546 Y86.417 E0.03422
G1 X93.588 Y86.919 E0.03627
G1 X94.362 Y87.563 E0.03156
G1 X94.936 Y88.352 E0.03058
G1 X95.276 Y89.351 E0.03308
G1 X95.334 Y90.250 E0.02828
G1 X95.129 Y91.184 E0.02996
G1 X94.778 Y91.922 E0.02561
G1 X94.254 Y92.539 E0.02539
G1 X93.524 Y93.120 E0.02925
G1 X92.464 Y93.610 E0.03662
G1 X91.115 Y93.885 E0.04316
G1 X89.990 Y93.944 E0.03530
G1 X88.525 Y93.835 E0.04609
G1 X87.483 Y93.593 E0.03353
G1 X86.635 Y93.209 E0.02916
G1 X86.151 Y92.897 E0.01807
G1 X85.515 Y92.307 E0.02721
G1 X85.105 Y91.726 E0.02229
G1 X84.839 Y91.080 E0.02189
G1 X84.667 Y90.252 E0.02654
G1 X84.688 Y89.558 E0.02175
G1 X84.871 Y88.816 E0.02397
G1 X85.123 Y88.243 E0.01962
G1 X85.447 Y87.781 E0.01769
M204 S1250
G1 X85.551 Y88.265 F9000.000
M204 S800
G1 F900
G1 X85.928 Y87.807 E0.01860
G1 X86.514 Y87.304 E0.02421
G1 X87.184 Y86.935 E0.02399
G1 X88.475 Y86.555 E0.04219
G1 X90.006 Y86.434 E0.04815
G1 X91.424 Y86.539 E0.04456
G1 X92.418 Y86.772 E0.03204
G1 X93.391 Y87.241 E0.03385
G1 X94.107 Y87.842 E0.02932
G1 X94.622 Y88.568 E0.02790
G1 X94.922 Y89.504 E0.03084
G1 X94.948 Y90.321 E0.02562
G1 X94.721 Y91.204 E0.02857
G1 X94.328 Y91.906 E0.02523
G1 X93.685 Y92.545 E0.02842
G1 X93.170 Y92.886 E0.01937
G1 X92.240 Y93.283 E0.03168
G1 X91.031 Y93.515 E0.03861
G1 X89.936 Y93.566 E0.03436
G1 X88.532 Y93.455 E0.04418
G1 X87.432 Y93.174 E0.03561
G1 X86.305 Y92.536 E0.04058
G1 X85.746 Y91.998 E0.02433
G1 X85.382 Y91.440 E0.02090
G1 X85.122 Y90.692 E0.02483
G1 X85.036 Y90.109 E0.01848
G1 X85.079 Y89.501 E0.01912
G1 X85.279 Y88.796 E0.02295
G1 X85.523 Y88.318 E0.01685
M204 S1250
G1 X85.905 Y88.413 F9000.000
M204 S800
G1 F900
G1 X86.238 Y88.032 E0.01585
G1 X86.755 Y87.596 E0.02122
G1 X87.398 Y87.250 E0.02289
G1 X88.561 Y86.922 E0.03789
G1 X90.003 Y86.811 E0.04535
G1 X91.018 Y86.863 E0.03185
G1 X92.281 Y87.124 E0.04046
G1 X93.181 Y87.554 E0.03128
G1 X93.827 Y88.095 E0.02640
G1 X94.288 Y88.744 E0.02496
G1 X94.556 Y89.603 E0.02824
G1 X94.566 Y90.332 E0.02284
G1 X94.340 Y91.141 E0.02632
G1 X93.986 Y91.729 E0.02154
G1 X93.393 Y92.296 E0.02575
G1 X92.626 Y92.738 E0.02775
G1 X92.083 Y92.934 E0.01810
G1 X90.907 Y93.149 E0.03749
G1 X89.411 Y93.173 E0.04691
G1 X88.493 Y93.065 E0.02896
G1 X87.496 Y92.793 E0.03240
G1 X86.525 Y92.228 E0.03523
G1 X86.022 Y91.739 E0.02201
G1 X85.699 Y91.229 E0.01894
G1 X85.478 Y90.561 E0.02207
G1 X85.411 Y90.040 E0.01645
G1 X85.461 Y89.511 E0.01668
G1 X85.660 Y88.859 E0.02134
G1 X85.876 Y88.466 E0.01409
M204 S1250
G1 E-2.24000 F4200.00000
G1 F7200.000
G1 X86.238 Y88.032 E-0.31278
G1 X86.755 Y87.596 E-0.37503
G1 X87.111 Y87.404 E-0.22419
G1 E-0.04800 F4200.00000
G1 Z0.400 F9000.000
G1 X89.184 Y90.000
G1 Z0.200
G1 E3.20000 F2400.00000
M204 S800
G1 F900
G1 X89.222 Y89.953 E0.00192
G1 X89.506 Y89.841 E0.00956
G1 X90.003 Y89.777 E0.01572
G1 X90.494 Y89.840 E0.01550
G1 X90.778 Y89.953 E0.00957
G1 X90.816 Y90.000 E0.00192
G1 X90.778 Y90.047 E0.00192
G1 X90.494 Y90.160 E0.00957
G1 X90.000 Y90.224 E0.01561
G1 X89.506 Y90.160 E0.01561
G1 X89.222 Y90.047 E0.00960
M204 S1250
G1 X89.237 Y89.971 F9000.000
G1 X90.088 Y90.000
M204 S800
G1 F900
G1 X89.914 Y90.000 E0.00095
M204 S1250
M106 S255
;BEFORE_LAYER_CHANGE
G92 E0.0
;0.35


G1 Z0.350 F9000.000
;AFTER_LAYER_CHANGE
;0.35
G1 E-3.20000 F4200.00000
G1 Z0.550 F9000.000
G1 X95.586 Y87.968
G1 Z0.350
G1 E3.20000 F2400.00000
G1 F900
G1 X95.990 Y89.095 E0.02896
G1 X96.089 Y90.153 E0.02571
G1 X95.895 Y91.259 E0.02715
G1 X95.506 Y92.177 E0.02412
G1 X94.902 Y92.963 E0.02396
G1 X94.028 Y93.695 E0.02757
G1 X92.918 Y94.251 E0.03003
G1 X91.647 Y94.572 E0.03169
G1 X90.074 Y94.697 E0.03817
G1 X88.814 Y94.636 E0.03050
G1 X87.406 Y94.358 E0.03471
G1 X86.697 Y94.086 E0.01836
G1 X85.759 Y93.547 E0.02617
G1 X85.003 Y92.864 E0.02463
G1 X84.502 Y92.190 E0.02034
G1 X84.149 Y91.403 E0.02084
G1 X83.927 Y90.441 E0.02387
G1 X83.923 Y89.596 E0.02045
G1 X84.105 Y88.740 E0.02115
G1 X84.394 Y88.007 E0.01907
G1 X84.816 Y87.353 E0.01881
G1 X85.533 Y86.636 E0.02452
G1 X86.130 Y86.208 E0.01776
G1 X86.906 Y85.819 E0.02102
G1 X87.593 Y85.593 E0.01749
G1 X88.841 Y85.361 E0.03070
G1 X90.004 Y85.302 E0.02817
G1 X91.603 Y85.422 E0.03879
G1 X92.826 Y85.716 E0.03041
G1 X94.004 Y86.290 E0.03171
G1 X94.909 Y87.044 E0.02848
G1 X95.551 Y87.919 E0.02624
G1 X95.246 Y88.141 F9000.000
G1 F900
G1 X95.637 Y89.238 E0.02816
G1 X95.714 Y90.222 E0.02387
G1 X95.512 Y91.224 E0.02472
G1 X95.139 Y92.057 E0.02208
G1 X94.567 Y92.763 E0.02199
G1 X93.759 Y93.419 E0.02517
G1 X92.656 Y93.944 E0.02954
G1 X91.539 Y94.207 E0.02773
G1 X90.023 Y94.321 E0.03677
G1 X88.841 Y94.259 E0.02864
G1 X87.443 Y93.976 E0.03450
G1 X86.496 Y93.562 E0.02500
G1 X85.952 Y93.220 E0.01553
G1 X85.257 Y92.583 E0.02281
G1 X84.801 Y91.955 E0.01876
G1 X84.492 Y91.237 E0.01889
G1 X84.296 Y90.342 E0.02216
G1 X84.306 Y89.571 E0.01865
G1 X84.488 Y88.776 E0.01972
G1 X84.758 Y88.124 E0.01707
G1 X85.149 Y87.541 E0.01698
G1 X85.815 Y86.891 E0.02250
G1 X86.369 Y86.506 E0.01631
G1 X87.212 Y86.104 E0.02258
G1 X88.179 Y85.846 E0.02421
G1 X90.005 Y85.679 E0.04434
G1 X91.541 Y85.794 E0.03726
G1 X92.685 Y86.066 E0.02843
G1 X93.798 Y86.605 E0.02991
G1 X94.638 Y87.306 E0.02647
G1 X95.210 Y88.093 E0.02352
G1 X94.908 Y88.313 F9000.000
G1 F900
G1 X94.936 Y88.352 E0.00116
G1 X95.276 Y89.351 E0.02552
G1 X95.334 Y90.250 E0.02181
G1 X95.129 Y91.184 E0.02311
G1 X94.778 Y91.922 E0.01976
G1 X94.254 Y92.539 E0.01959
G1 X93.524 Y93.120 E0.02256
G1 X92.464 Y93.610 E0.02825
G1 X91.115 Y93.885 E0.03329
G1 X89.990 Y93.944 E0.02723
G1 X88.525 Y93.835 E0.03555
G1 X87.483 Y93.593 E0.02587
G1 X86.635 Y93.209 E0.02250
G1 X86.151 Y92.897 E0.01394
G1 X85.515 Y92.307 E0.02099
G1 X85.105 Y91.726 E0.01720
G1 X84.839 Y91.080 E0.01688
G1 X84.667 Y90.252 E0.02047
G1 X84.688 Y89.558 E0.01678
G1 X84.871 Y88.816 E0.01849
G1 X85.123 Y88.243 E0.01513
G1 X85.481 Y87.732 E0.01509
G1 X86.094 Y87.149 E0.02046
G1 X86.601 Y86.809 E0.01478
G1 X87.424 Y86.427 E0.02194
G1 X88.284 Y86.208 E0.02145
G1 X90.005 Y86.056 E0.04179
G1 X91.484 Y86.166 E0.03586
G1 X92.546 Y86.417 E0.02639
G1 X93.588 Y86.919 E0.02797
G1 X94.362 Y87.563 E0.02434
G1 X94.872 Y88.265 E0.02098
G1 X94.622 Y88.568 F9000.000
G1 F900
G1 X94.922 Y89.504 E0.02379
G1 X94.948 Y90.321 E0.01976
G1 X94.721 Y91.204 E0.02204
G1 X94.328 Y91.906 E0.01946
G1 X93.685 Y92.545 E0.02192
G1 X93.170 Y92.886 E0.01494
G1 X92.240 Y93.283 E0.02444
G1 X91.031 Y93.515 E0.02978
G1 X89.936 Y93.566 E0.02650
G1 X88.532 Y93.455 E0.03408
G1 X87.432 Y93.174 E0.02747
G1 X86.305 Y92.536 E0.03130
G1 X85.746 Y91.998 E0.01877
G1 X85.382 Y91.440 E0.01612
G1 X85.122 Y90.692 E0.01915
G1 X85.036 Y90.109 E0.01425
G1 X85.079 Y89.501 E0.01474
G1 X85.279 Y88.796 E0.01770
G1 X85.551 Y88.265 E0.01445
G1 X85.928 Y87.807 E0.01435
G1 X86.514 Y87.304 E0.01867
G1 X87.184 Y86.935 E0.01850
G1 X88.475 Y86.555 E0.03254
G1 X90.006 Y86.434 E0.03714
G1 X91.424 Y86.539 E0.03437
G1 X92.418 Y86.772 E0.02471
G1 X93.391 Y87.241 E0.02611
G1 X94.107 Y87.842 E0.02261
G1 X94.587 Y88.519 E0.02007
G1 X94.282 Y88.735 F9000.000
G1 F900
G1 X94.556 Y89.603 E0.02201
G1 X94.566 Y90.332 E0.01762
G1 X94.340 Y91.141 E0.02030
G1 X93.986 Y91.729 E0.01662
G1 X93.393 Y92.296 E0.01986
G1 X92.626 Y92.738 E0.02140
G1 X92.083 Y92.934 E0.01396
G1 X90.907 Y93.149 E0.02892
G1 X89.411 Y93.173 E0.03619
G1 X88.493 Y93.065 E0.02234
G1 X87.496 Y92.793 E0.02499
G1 X86.525 Y92.228 E0.02717
G1 X86.022 Y91.739 E0.01698
G1 X85.699 Y91.229 E0.01461
G1 X85.478 Y90.561 E0.01702
G1 X85.411 Y90.040 E0.01269
G1 X85.461 Y89.511 E0.01287
G1 X85.660 Y88.859 E0.01646
G1 X85.905 Y88.413 E0.01232
G1 X86.238 Y88.032 E0.01223
G1 X86.755 Y87.596 E0.01637
G1 X87.398 Y87.250 E0.01766
G1 X88.561 Y86.922 E0.02922
G1 X90.003 Y86.811 E0.03498
G1 X91.018 Y86.863 E0.02456
G1 X92.281 Y87.124 E0.03121
G1 X93.181 Y87.554 E0.02412
G1 X93.827 Y88.095 E0.02037
G1 X94.248 Y88.687 E0.01756
G1 E-2.24000 F4200.00000
G1 F7200.000
G1 X94.556 Y89.603 E-0.53612
G1 X94.565 Y90.282 E-0.37588
G1 E-0.04800 F4200.00000
G1 Z0.550 F9000.000
G1 X90.000 Y90.037
G1 Z0.350
G1 E3.20000 F2400.00000
M204 S800
G1 F900
G1 X89.442 Y89.997 E0.01458
G1 X90.155 Y89.970 E0.01859
G1 X90.558 Y89.997 E0.01054
G1 X90.060 Y90.034 E0.01302
M204 S1250
G1 X90.000 Y90.455 F9000.000
M204 S800
G1 F900
G1 X89.495 Y90.432 E0.01317
G1 X88.989 Y90.338 E0.01341
G1 X88.701 Y90.233 E0.00800
G1 X88.488 Y90.081 E0.00681
G1 X88.460 Y90.000 E0.00223
G1 X88.488 Y89.919 E0.00223
G1 X88.701 Y89.767 E0.00681
G1 X88.993 Y89.660 E0.00810
G1 X89.488 Y89.569 E0.01311
G1 X90.159 Y89.552 E0.01750
G1 X90.510 Y89.568 E0.00914
G1 X91.007 Y89.660 E0.01318
G1 X91.299 Y89.767 E0.00810
G1 X91.512 Y89.919 E0.00681
G1 X91.540 Y90.000 E0.00223
G1 X91.512 Y90.081 E0.00223
G1 X91.299 Y90.233 E0.00681
G1 X91.011 Y90.338 E0.00800
G1 X90.505 Y90.432 E0.01341
G1 X90.060 Y90.452 E0.01160
M204 S1250
G1 X89.797 Y90.110 F9000.000
;BEFORE_LAYER_CHANGE
G92 E0.0
;0.5


G1 Z0.500 F9000.000
;AFTER_LAYER_CHANGE
;0.5
G1 E-3.20000 F4200.00000
G1 Z0.700 F9000.000
G1 X95.586 Y87.968
G1 Z0.500
G1 E3.20000 F2400.00000
G1 F900
G1 X95.990 Y89.095 E0.02896
G1 X96.089 Y90.153 E0.02571
G1 X95.895 Y91.259 E0.02715
G1 X95.506 Y92.177 E0.02412
G1 X94.902 Y92.963 E0.02396
G1 X94.028 Y93.695 E0.02757
G1 X92.918 Y94.251 E0.03003
G1 X91.647 Y94.572 E0.03169
G1 X90.074 Y94.697 E0.03817
G1 X88.814 Y94.636 E0.03050
G1 X87.406 Y94.358 E0.03471
G1 X86.697 Y94.086 E0.01836
G1 X85.759 Y93.547 E0.02617
G1 X85.003 Y92.864 E0.02463
G1 X84.502 Y92.190 E0.02034
G1 X84.149 Y91.403 E0.02084
G1 X83.927 Y90.441 E0.02387
G1 X83.923 Y89.596 E0.02045
G1 X84.105 Y88.740 E0.02115
G1 X84.394 Y88.007 E0.01907
G1 X84.816 Y87.353 E0.01881
G1 X85.533 Y86.636 E0.02452
G1 X86.130 Y86.208 E0.01776
G1 X86.906 Y85.819 E0.02102
G1 X87.593 Y85.593 E0.01749
G1 X88.841 Y85.361 E0.03070
G1 X90.004 Y85.302 E0.02817
G1 X91.603 Y85.422 E0.03879
G1 X92.826 Y85.716 E0.03041
G1 X94.004 Y86.290 E0.03171
G1 X94.909 Y87.044 E0.02848
G1 X95.551 Y87.919 E0.02624
G1 X95.246 Y88.141 F9000.000
G1 F900
G1 X95.637 Y89.238 E0.02816
G1 X95.714 Y90.222 E0.02387
G1 X95.512 Y91.224 E0.02472
G1 X95.139 Y92.057 E0.02208
G1 X94.567 Y92.763 E0.02199
G1 X93.759 Y93.419 E0.02517
G1 X92.656 Y93.944 E0.02954
G1 X91.539 Y94.207 E0.02773
G1 X90.023 Y94.321 E0.03677
G1 X88.841 Y94.259 E0.02864
G1 X87.443 Y93.976 E0.03450
G1 X86.496 Y93.562 E0.02500
G1 X85.952 Y93.220 E0.01553
G1 X85.257 Y92.583 E0.02281
G1 X84.801 Y91.955 E0.01876
G1 X84.492 Y91.237 E0.01889
G1 X84.296 Y90.342 E0.02216
G1 X84.306 Y89.571 E0.01865
G1 X84.488 Y88.776 E0.01972
G1 X84.758 Y88.124 E0.01707
G1 X85.149 Y87.541 E0.01698
G1 X85.815 Y86.891 E0.02250
G1 X86.369 Y86.506 E0.01631
G1 X87.212 Y86.104 E0.02258
G1 X88.179 Y85.846 E0.02421
G1 X90.005 Y85.679 E0.04434
G1 X91.541 Y85.794 E0.03726
G1 X92.685 Y86.066 E0.02843
G1 X93.798 Y86.605 E0.02991
G1 X94.638 Y87.306 E0.02647
G1 X95.210 Y88.093 E0.02352
G1 X94.908 Y88.313 F9000.000
G1 F900
G1 X94.936 Y88.352 E0.00116
G1 X95.276 Y89.351 E0.02552
G1 X95.334 Y90.250 E0.02181
G1 X95.129 Y91.184 E0.02311
G1 X94.778 Y91.922 E0.01976
G1 X94.254 Y92.539 E0.01959
G1 X93.524 Y93.120 E0.02256
G1 X92.464 Y93.610 E0.02825
G1 X91.115 Y93.885 E0.03329
G1 X89.990 Y93.944 E0.02723
G1 X88.525 Y93.835 E0.03555
G1 X87.483 Y93.593 E0.02587
G1 X86.635 Y93.209 E0.02250
G1 X86.151 Y92.897 E0.01394
G1 X85.515 Y92.307 E0.02099
G1 X85.105 Y91.726 E0.01720
G1 X84.839 Y91.080 E0.01688
G1 X84.667 Y90.252 E0.02047
G1 X84.688 Y89.558 E0.01678
G1 X84.871 Y88.816 E0.01849
G1 X85.123 Y88.243 E0.01513
G1 X85.481 Y87.732 E0.01509
G1 X86.094 Y87.149 E0.02046
G1 X86.601 Y86.809 E0.01478
G1 X87.424 Y86.427 E0.02194
G1 X88.284 Y86.208 E0.02145
G1 X90.005 Y86.056 E0.04179
G1 X91.484 Y86.166 E0.03586
G1 X92.546 Y86.417 E0.02639
G1 X93.588 Y86.919 E0.02797
G1 X94.362 Y87.563 E0.02434
G1 X94.872 Y88.265 E0.02098
G1 X94.622 Y88.568 F9000.000
G1 F900
G1 X94.922 Y89.504 E0.02379
G1 X94.948 Y90.321 E0.01976
G1 X94.721 Y91.204 E0.02204
G1 X94.328 Y91.906 E0.01946
G1 X93.685 Y92.545 E0.02192
G1 X93.170 Y92.886 E0.01494
G1 X92.240 Y93.283 E0.02444
G1 X91.031 Y93.515 E0.02978
G1 X89.936 Y93.566 E0.02650
G1 X88.532 Y93.455 E0.03408
G1 X87.432 Y93.174 E0.02747
G1 X86.305 Y92.536 E0.03130
G1 X85.746 Y91.998 E0.01877
G1 X85.382 Y91.440 E0.01612
G1 X85.122 Y90.692 E0.01915
G1 X85.036 Y90.109 E0.01425
G1 X85.079 Y89.501 E0.01474
G1 X85.279 Y88.796 E0.01770
G1 X85.551 Y88.265 E0.01445
G1 X85.928 Y87.807 E0.01435
G1 X86.514 Y87.304 E0.01867
G1 X87.184 Y86.935 E0.01850
G1 X88.475 Y86.555 E0.03254
G1 X90.006 Y86.434 E0.03714
G1 X91.424 Y86.539 E0.03437
G1 X92.418 Y86.772 E0.02471
