; generated by PrusaSlicer 2.2.0+win64 on 2020-07-29 at 16:19:12 UTC


;
;

;
;
; 

; external perimeters extrusion width = 0.45mm
; perimeters extrusion width = 0.45mm
; infill extrusion width = 0.45mm
; solid infill extrusion width = 0.45mm
; top infill extrusion width = 0.40mm
; first layer extrusion width = 0.42mm

M73 P0 R67
M201 X1250 Y1250 Z400 E5000 ; sets maximum accelerations, mm/sec^2
M203 X180 Y180 Z12 E80 ; sets maximum feedrates, mm/sec
M204 P1250 R1250 T1250 ; sets acceleration (P, T) and retract acceleration (R), mm/sec^2
M205 X8.00 Y8.00 Z2.00 E10.00 ; sets the jerk limits, mm/sec
M205 S0 T0 ; sets the minimum extruding and travel feed rate, mm/sec
M107
G90 ; use absolute coordinates
M83 ; extruder relative mode
M104 S170 ; set extruder temp for bed leveling
M140 S60 ; set bed temp
M109 R170 ; wait for bed leveling temp
M190 S60 ; wait for bed temp
G28 ; home all without mesh bed level
G29 ; mesh bed leveling 
M104 S215 ; set extruder temp
G92 E0.0
G1 Y-2.0 X179 F2400
G1 Z3 F720
M109 S215 ; wait for extruder temp

; intro line
G1 X170 F1000
G1 Z0.2 F720
G1 X110.0 E8.0 F900
M73 P0 R67
G1 X40.0 E10.0 F700
G92 E0.0

M221 S95 ; set flow
G21 ; set units to millimeters
G90 ; use absolute coordinates
M83 ; use relative distances for extrusion
M900 K0.2 ; Filament gcode
;BEFORE_LAYER_CHANGE
G92 E0.0
;0.2


G1 Z0.200 F9000.000
;AFTER_LAYER_CHANGE
;0.2
G1 E-3.20000 F4200.00000
G1 Z0.400 F9000.000
G1 X73.506 Y73.611
G1 Z0.200
G1 E3.20000 F2400.00000
M204 S800
G1 F1200.000
G1 X75.190 Y72.075 E0.07146
G1 X77.050 Y70.688 E0.07274
G1 X79.066 Y69.479 E0.07370
G1 X81.181 Y68.485 E0.07328
G1 X83.382 Y67.710 E0.07316
G1 X85.649 Y67.159 E0.07316
G1 X87.964 Y66.837 E0.07327
G1 X90.258 Y66.750 E0.07199
G1 X92.631 Y66.897 E0.07454
G1 X94.929 Y67.276 E0.07303
G1 X97.190 Y67.888 E0.07344
G1 X99.276 Y68.680 E0.06995
G1 X100.482 Y69.245 E0.04178
G1 X102.511 Y70.401 E0.07321
G1 X104.376 Y71.724 E0.07169
G1 X106.173 Y73.295 E0.07486
G1 X107.731 Y74.958 E0.07145
G1 X109.150 Y76.812 E0.07320
G1 X110.377 Y78.799 E0.07322
G1 X111.393 Y80.891 E0.07293
G1 X112.203 Y83.094 E0.07357
G1 X112.783 Y85.352 E0.07311
G1 X113.135 Y87.671 E0.07353
G1 X113.252 Y89.999 E0.07310
G1 X113.135 Y92.329 E0.07316
G1 X112.783 Y94.645 E0.07345
G1 X112.202 Y96.910 E0.07329
G1 X111.398 Y99.098 E0.07308
G1 X110.376 Y101.202 E0.07335
G1 X109.152 Y103.186 E0.07311
G1 X107.732 Y105.041 E0.07323
G1 X106.172 Y106.706 E0.07156
G1 X104.376 Y108.275 E0.07478
G1 X102.511 Y109.598 E0.07168
G1 X100.482 Y110.755 E0.07323
G1 X99.276 Y111.320 E0.04179
G1 X97.189 Y112.113 E0.06998
G1 X94.931 Y112.723 E0.07335
G1 X92.634 Y113.102 E0.07299
G1 X90.254 Y113.250 E0.07475
G1 X87.969 Y113.163 E0.07171
G1 X85.656 Y112.843 E0.07323
G1 X83.390 Y112.293 E0.07311
G1 X81.170 Y111.510 E0.07380
G1 X79.060 Y110.518 E0.07309
G1 X77.054 Y109.315 E0.07334
G1 X75.182 Y107.919 E0.07322
G1 X73.462 Y106.345 E0.07310
G1 X71.902 Y104.598 E0.07345
G1 X70.529 Y102.709 E0.07322
G1 X69.352 Y100.692 E0.07321
G1 X68.385 Y98.571 E0.07309
G1 X67.633 Y96.353 E0.07345
G1 X67.109 Y94.081 E0.07309
G1 X66.815 Y91.764 E0.07322
G1 X66.754 Y89.528 E0.07016
G1 X66.822 Y88.156 E0.04308
G1 X67.122 Y85.849 E0.07293
G1 X67.632 Y83.649 E0.07079
G1 X68.411 Y81.366 E0.07566
G1 X69.348 Y79.316 E0.07065
G1 X70.528 Y77.292 E0.07345
G1 X71.898 Y75.406 E0.07310
G1 X73.466 Y73.656 E0.07369
M204 S1250
G1 E-2.24000 F4200.00000
G1 F7200.000
G1 X74.679 Y72.543 E-0.91200
G1 E-0.04800 F4200.00000
G1 Z0.400 F9000.000
G1 X89.286 Y107.244
G1 Z0.200
G1 E3.20000 F2400.00000
M204 S800
G1 F1200.000
G1 X89.584 Y107.139 E0.00992
G1 X89.898 Y107.104 E0.00992
G1 X90.213 Y107.139 E0.00992
G1 X90.511 Y107.244 E0.00992
G1 X90.779 Y107.412 E0.00992
G1 X91.003 Y107.636 E0.00992
G1 X91.171 Y107.904 E0.00992
G1 X91.276 Y108.202 E0.00992
G1 X91.311 Y108.516 E0.00992
G1 X91.276 Y108.831 E0.00992
G1 X91.171 Y109.129 E0.00992
G1 X91.003 Y109.397 E0.00992
G1 X90.779 Y109.621 E0.00992
G1 X90.511 Y109.789 E0.00992
G1 X90.213 Y109.894 E0.00992
G1 X89.898 Y109.929 E0.00992
G1 X89.584 Y109.894 E0.00992
G1 X89.286 Y109.789 E0.00992
G1 X89.018 Y109.621 E0.00992
G1 X88.794 Y109.397 E0.00992
G1 X88.626 Y109.129 E0.00992
G1 X88.521 Y108.831 E0.00992
G1 X88.486 Y108.516 E0.00992
G1 X88.521 Y108.202 E0.00992
G1 X88.626 Y107.904 E0.00992
G1 X88.794 Y107.636 E0.00992
G1 X89.018 Y107.412 E0.00992
G1 X89.235 Y107.276 E0.00804
M204 S1250
G1 X89.309 Y106.928 F9000.000
G1 E-2.24000 F4200.00000
G1 F7200.000
G1 X89.584 Y107.139 E-0.20784
G1 X89.898 Y107.104 E-0.17529
G1 X90.213 Y107.139 E-0.17530
G1 X90.511 Y107.244 E-0.17529
G1 X90.779 Y107.412 E-0.17530
G1 X90.783 Y107.416 E-0.00298
G1 E-0.04800 F4200.00000
G1 Z0.400 F9000.000
G1 X75.151 Y99.832
G1 Z0.200
G1 E3.20000 F2400.00000
M204 S800
G1 F1200.000
G1 X75.081 Y99.966 E0.00474
G1 X74.874 Y100.206 E0.00992
G1 X74.620 Y100.394 E0.00992
G1 X74.330 Y100.520 E0.00992
G1 X74.019 Y100.579 E0.00992
G1 X73.703 Y100.567 E0.00992
G1 X73.397 Y100.485 E0.00992
G1 X73.118 Y100.337 E0.00992
G1 X72.878 Y100.131 E0.00992
G1 X72.690 Y99.877 E0.00992
G1 X72.564 Y99.587 E0.00992
G1 X72.505 Y99.276 E0.00992
G1 X72.517 Y98.960 E0.00992
G1 X72.599 Y98.654 E0.00992
G1 X72.746 Y98.374 E0.00992
G1 X72.953 Y98.135 E0.00992
G1 X73.207 Y97.947 E0.00992
G1 X73.497 Y97.820 E0.00992
G1 X73.808 Y97.762 E0.00992
G1 X74.124 Y97.773 E0.00992
G1 X74.430 Y97.855 E0.00992
G1 X74.709 Y98.003 E0.00992
G1 X74.949 Y98.209 E0.00992
G1 X75.137 Y98.464 E0.00992
G1 X75.263 Y98.754 E0.00992
G1 X75.322 Y99.065 E0.00992
G1 X75.310 Y99.381 E0.00992
G1 X75.228 Y99.686 E0.00992
G1 X75.179 Y99.779 E0.00329
M204 S1250
G1 X75.238 Y99.956 F9000.000
G1 E-2.24000 F4200.00000
G1 F7200.000
G1 X75.081 Y99.966 E-0.11706
G1 X74.874 Y100.206 E-0.17529
G1 X74.620 Y100.394 E-0.17529
G1 X74.330 Y100.520 E-0.17529
G1 X74.019 Y100.579 E-0.17529
G1 X73.850 Y100.573 E-0.09376
G1 E-0.04800 F4200.00000
G1 Z0.400 F9000.000
G1 X74.226 Y82.051
G1 Z0.200
G1 E3.20000 F2400.00000
M204 S800
G1 F1200.000
G1 X73.910 Y82.062 E0.00992
G1 X73.599 Y82.004 E0.00992
G1 X73.309 Y81.877 E0.00992
G1 X73.054 Y81.689 E0.00992
G1 X72.848 Y81.450 E0.00992
G1 X72.700 Y81.170 E0.00992
G1 X72.618 Y80.864 E0.00992
G1 X72.606 Y80.548 E0.00992
G1 X72.665 Y80.237 E0.00992
G1 X72.792 Y79.948 E0.00992
G1 X72.980 Y79.693 E0.00992
G1 X73.219 Y79.487 E0.00992
G1 X73.499 Y79.339 E0.00992
G1 X73.805 Y79.257 E0.00992
G1 X74.121 Y79.245 E0.00992
G1 X74.431 Y79.304 E0.00992
G1 X74.721 Y79.430 E0.00992
G1 X74.976 Y79.618 E0.00992
G1 X75.182 Y79.858 E0.00992
G1 X75.330 Y80.138 E0.00992
G1 X75.412 Y80.443 E0.00992
G1 X75.424 Y80.759 E0.00992
G1 X75.365 Y81.070 E0.00992
G1 X75.238 Y81.360 E0.00992
G1 X75.051 Y81.615 E0.00992
G1 X74.811 Y81.821 E0.00992
G1 X74.531 Y81.969 E0.00992
G1 X74.284 Y82.035 E0.00804
M204 S1250
G1 X74.110 Y82.345 F9000.000
G1 E-2.24000 F4200.00000
G1 F7200.000
G1 X73.910 Y82.062 E-0.20785
G1 X73.599 Y82.004 E-0.17529
G1 X73.309 Y81.877 E-0.17529
G1 X73.054 Y81.689 E-0.17529
G1 X72.848 Y81.450 E-0.17529
G1 X72.845 Y81.445 E-0.00298
G1 E-0.04800 F4200.00000
G1 Z0.400 F9000.000
G1 X72.232 Y80.635
G1 Z0.200
G1 E3.20000 F2400.00000
M204 S800
G1 F1200.000
G1 X72.243 Y80.921 E0.00896
G1 X72.347 Y81.309 E0.01258
G1 X72.534 Y81.663 E0.01258
G1 X72.796 Y81.967 E0.01258
G1 X73.119 Y82.206 E0.01258
G1 X73.487 Y82.366 E0.01258
G1 X73.881 Y82.441 E0.01258
G1 X74.282 Y82.426 E0.01258
G1 X74.670 Y82.322 E0.01258
G1 X75.025 Y82.134 E0.01258
G1 X75.329 Y81.873 E0.01258
G1 X75.567 Y81.550 E0.01258
G1 X75.728 Y81.182 E0.01258
G1 X75.802 Y80.788 E0.01258
G1 X75.787 Y80.387 E0.01258
G1 X75.683 Y79.999 E0.01258
G1 X75.496 Y79.644 E0.01258
G1 X75.234 Y79.340 E0.01258
G1 X74.911 Y79.102 E0.01258
G1 X74.543 Y78.941 E0.01258
G1 X74.149 Y78.867 E0.01258
G1 X73.748 Y78.882 E0.01258
G1 X73.360 Y78.986 E0.01258
G1 X73.122 Y79.112 E0.00845
G1 X73.750 Y78.190 E0.03496
G1 X74.364 Y77.389 E0.03165
G1 X75.018 Y76.619 E0.03165
G1 X75.709 Y75.884 E0.03165
G1 X76.431 Y75.188 E0.03145
G1 X77.198 Y74.521 E0.03186
G1 X77.991 Y73.897 E0.03165
G1 X78.816 Y73.314 E0.03165
G1 X79.668 Y72.773 E0.03165
G1 X80.547 Y72.276 E0.03165
G1 X81.449 Y71.823 E0.03165
G1 X82.373 Y71.417 E0.03165
G1 X83.310 Y71.059 E0.03145
G1 X84.277 Y70.745 E0.03186
G1 X85.251 Y70.482 E0.03165
G1 X86.238 Y70.268 E0.03165
G1 X87.227 Y70.105 E0.03145
G1 X88.237 Y69.990 E0.03186
G1 X89.231 Y69.927 E0.03124
G1 X88.984 Y70.082 E0.00915
G1 X88.701 Y70.366 E0.01258
G1 X88.487 Y70.706 E0.01258
G1 X88.354 Y71.085 E0.01258
G1 X88.310 Y71.484 E0.01258
G1 X88.354 Y71.882 E0.01258
G1 X88.487 Y72.261 E0.01258
G1 X88.701 Y72.601 E0.01258
G1 X88.984 Y72.885 E0.01258
G1 X89.324 Y73.098 E0.01258
G1 X89.703 Y73.231 E0.01258
G1 X90.102 Y73.276 E0.01258
G1 X90.500 Y73.231 E0.01258
G1 X90.879 Y73.098 E0.01258
G1 X91.219 Y72.885 E0.01258
G1 X91.503 Y72.601 E0.01258
G1 X91.716 Y72.261 E0.01258
G1 X91.849 Y71.882 E0.01258
G1 X91.894 Y71.484 E0.01258
G1 X91.849 Y71.085 E0.01258
G1 X91.716 Y70.706 E0.01258
G1 X91.503 Y70.366 E0.01258
G1 X91.219 Y70.082 E0.01258
G1 X90.995 Y69.942 E0.00828
G1 X92.268 Y70.041 E0.04004
G1 X93.268 Y70.180 E0.03165
G1 X94.260 Y70.369 E0.03165
G1 X95.241 Y70.608 E0.03165
G1 X96.209 Y70.896 E0.03165
G1 X97.160 Y71.232 E0.03165
G1 X98.095 Y71.616 E0.03168
G1 X99.008 Y72.046 E0.03165
G1 X99.899 Y72.521 E0.03165
G1 X100.765 Y73.040 E0.03165
G1 X101.603 Y73.602 E0.03165
G1 X102.412 Y74.206 E0.03165
G1 X103.190 Y74.850 E0.03165
G1 X103.935 Y75.531 E0.03165
G1 X104.644 Y76.250 E0.03165
G1 X105.316 Y77.003 E0.03165
G1 X105.950 Y77.789 E0.03165
G1 X106.543 Y78.605 E0.03165
G1 X106.993 Y79.295 E0.02580
G1 X106.741 Y79.162 E0.00892
G1 X106.354 Y79.058 E0.01258
G1 X105.953 Y79.043 E0.01258
G1 X105.558 Y79.117 E0.01258
G1 X105.190 Y79.278 E0.01258
G1 X104.868 Y79.516 E0.01258
G1 X104.606 Y79.820 E0.01258
G1 X104.418 Y80.175 E0.01258
G1 X104.314 Y80.563 E0.01258
G1 X104.299 Y80.964 E0.01258
G1 X104.374 Y81.358 E0.01258
G1 X104.535 Y81.726 E0.01258
G1 X104.773 Y82.049 E0.01258
G1 X105.077 Y82.310 E0.01258
G1 X105.432 Y82.498 E0.01258
G1 X105.819 Y82.602 E0.01258
G1 X106.220 Y82.617 E0.01258
G1 X106.615 Y82.542 E0.01258
G1 X106.983 Y82.382 E0.01258
G1 X107.305 Y82.143 E0.01258
G1 X107.567 Y81.839 E0.01258
G1 X107.755 Y81.484 E0.01258
G1 X107.859 Y81.097 E0.01258
G1 X107.868 Y80.835 E0.00820
G1 X108.067 Y81.220 E0.01356
G1 X108.485 Y82.138 E0.03165
G1 X108.857 Y83.077 E0.03165
G1 X109.181 Y84.033 E0.03165
G1 X109.457 Y85.004 E0.03165
G1 X109.683 Y85.988 E0.03165
G1 X109.860 Y86.983 E0.03168
G1 X109.986 Y87.985 E0.03167
G1 X110.062 Y88.991 E0.03165
G1 X110.088 Y90.000 E0.03163
G1 X110.063 Y91.003 E0.03146
G1 X109.986 Y92.015 E0.03182
G1 X109.860 Y93.017 E0.03167
G1 X109.683 Y94.012 E0.03168
G1 X109.457 Y94.996 E0.03165
G1 X109.181 Y95.967 E0.03165
G1 X108.857 Y96.923 E0.03165
G1 X108.485 Y97.862 E0.03165
G1 X108.067 Y98.780 E0.03165
G1 X107.767 Y99.359 E0.02044
G1 X107.757 Y99.079 E0.00880
G1 X107.653 Y98.691 E0.01258
G1 X107.466 Y98.337 E0.01258
G1 X107.204 Y98.033 E0.01258
G1 X106.881 Y97.794 E0.01258
G1 X106.513 Y97.634 E0.01258
G1 X106.119 Y97.559 E0.01258
G1 X105.718 Y97.574 E0.01258
G1 X105.330 Y97.678 E0.01258
G1 X104.975 Y97.866 E0.01258
G1 X104.671 Y98.127 E0.01258
G1 X104.433 Y98.450 E0.01258
G1 X104.272 Y98.818 E0.01258
G1 X104.198 Y99.212 E0.01258
G1 X104.213 Y99.613 E0.01258
G1 X104.317 Y100.001 E0.01258
G1 X104.504 Y100.356 E0.01258
G1 X104.766 Y100.660 E0.01258
G1 X105.089 Y100.898 E0.01258
G1 X105.457 Y101.059 E0.01258
G1 X105.851 Y101.133 E0.01258
G1 X106.252 Y101.118 E0.01258
G1 X106.640 Y101.014 E0.01258
G1 X106.871 Y100.892 E0.00821
G1 X106.543 Y101.395 E0.01882
G1 X105.950 Y102.211 E0.03165
G1 X105.316 Y102.997 E0.03165
G1 X104.644 Y103.750 E0.03165
G1 X103.935 Y104.469 E0.03165
G1 X103.190 Y105.150 E0.03165
G1 X102.412 Y105.794 E0.03165
G1 X101.603 Y106.398 E0.03165
G1 X100.765 Y106.960 E0.03165
G1 X99.899 Y107.479 E0.03165
G1 X99.008 Y107.954 E0.03165
G1 X98.095 Y108.384 E0.03165
G1 X97.160 Y108.768 E0.03168
G1 X96.209 Y109.104 E0.03165
G1 X95.241 Y109.392 E0.03165
G1 X94.260 Y109.631 E0.03165
G1 X93.268 Y109.820 E0.03165
G1 X92.268 Y109.959 E0.03165
G1 X91.263 Y110.048 E0.03165
G1 X90.779 Y110.066 E0.01518
G1 X91.016 Y109.918 E0.00877
G1 X91.299 Y109.634 E0.01258
G1 X91.513 Y109.294 E0.01258
G1 X91.646 Y108.915 E0.01258
G1 X91.690 Y108.516 E0.01258
G1 X91.646 Y108.118 E0.01258
G1 X91.513 Y107.739 E0.01258
G1 X91.299 Y107.399 E0.01258
G1 X91.016 Y107.115 E0.01258
G1 X90.676 Y106.902 E0.01258
G1 X90.297 Y106.769 E0.01258
G1 X89.898 Y106.724 E0.01258
G1 X89.500 Y106.769 E0.01258
G1 X89.121 Y106.902 E0.01258
G1 X88.781 Y107.115 E0.01258
G1 X88.497 Y107.399 E0.01258
G1 X88.284 Y107.739 E0.01258
G1 X88.151 Y108.118 E0.01258
G1 X88.106 Y108.516 E0.01258
G1 X88.151 Y108.915 E0.01258
G1 X88.284 Y109.294 E0.01258
G1 X88.497 Y109.634 E0.01258
G1 X88.781 Y109.918 E0.01258
G1 X89.005 Y110.058 E0.00831
G1 X88.237 Y110.010 E0.02414
G1 X87.234 Y109.896 E0.03165
G1 X86.238 Y109.732 E0.03165
G1 X85.251 Y109.518 E0.03165
G1 X84.276 Y109.255 E0.03165
G1 X83.316 Y108.943 E0.03165
G1 X82.373 Y108.583 E0.03165
G1 X81.449 Y108.177 E0.03165
G1 X80.547 Y107.724 E0.03165
G1 X79.668 Y107.227 E0.03165
G1 X78.816 Y106.686 E0.03165
G1 X77.991 Y106.103 E0.03165
G1 X77.198 Y105.479 E0.03165
G1 X76.436 Y104.817 E0.03165
G1 X75.704 Y104.112 E0.03186
G1 X75.018 Y103.381 E0.03145
G1 X74.364 Y102.611 E0.03165
G1 X73.750 Y101.810 E0.03165
G1 X73.010 Y100.707 E0.04164
G1 X73.259 Y100.838 E0.00882
G1 X73.646 Y100.942 E0.01258
G1 X74.047 Y100.957 E0.01258
G1 X74.442 Y100.883 E0.01258
G1 X74.810 Y100.722 E0.01258
G1 X75.132 Y100.484 E0.01258
G1 X75.394 Y100.180 E0.01258
G1 X75.582 Y99.825 E0.01258
G1 X75.686 Y99.437 E0.01258
G1 X75.701 Y99.036 E0.01258
G1 X75.626 Y98.642 E0.01258
G1 X75.465 Y98.274 E0.01258
G1 X75.227 Y97.951 E0.01258
G1 X74.923 Y97.690 E0.01258
G1 X74.568 Y97.502 E0.01258
G1 X74.181 Y97.398 E0.01258
G1 X73.780 Y97.383 E0.01258
G1 X73.385 Y97.458 E0.01258
G1 X73.017 Y97.618 E0.01258
G1 X72.695 Y97.857 E0.01258
G1 X72.433 Y98.161 E0.01258
G1 X72.245 Y98.516 E0.01258
G1 X72.141 Y98.903 E0.01258
G1 X72.131 Y99.174 E0.00850
G1 X71.719 Y98.327 E0.02954
G1 X71.324 Y97.398 E0.03165
G1 X70.974 Y96.444 E0.03185
G1 X70.674 Y95.480 E0.03165
G1 X70.423 Y94.502 E0.03165
G1 X70.222 Y93.513 E0.03165
G1 X70.071 Y92.522 E0.03144
G1 X69.969 Y91.513 E0.03179
G1 X69.919 Y90.503 E0.03171
G1 X69.919 Y89.497 E0.03153
G1 X69.969 Y88.487 E0.03171
G1 X70.071 Y87.483 E0.03165
G1 X70.222 Y86.487 E0.03157
G1 X70.423 Y85.498 E0.03165
G1 X70.674 Y84.520 E0.03165
G1 X70.974 Y83.556 E0.03165
G1 X71.324 Y82.602 E0.03185
G1 X71.719 Y81.673 E0.03165
G1 X72.203 Y80.688 E0.03443
M204 S1250
G1 E-2.24000 F4200.00000
G1 F7200.000
G1 X72.243 Y80.921 E-0.13100
G1 X72.347 Y81.309 E-0.22239
G1 X72.534 Y81.663 E-0.22238
G1 X72.796 Y81.967 E-0.22238
G1 X72.961 Y82.089 E-0.11385
G1 E-0.04800 F4200.00000
G1 Z0.400 F9000.000
G1 X88.829 Y72.096
G1 Z0.200
G1 E3.20000 F2400.00000
M204 S800
G1 F1200.000
G1 X88.724 Y71.798 E0.00992
G1 X88.689 Y71.484 E0.00992
G1 X88.724 Y71.169 E0.00992
G1 X88.829 Y70.871 E0.00992
G1 X88.997 Y70.603 E0.00992
G1 X89.221 Y70.379 E0.00992
G1 X89.489 Y70.211 E0.00992
G1 X89.787 Y70.106 E0.00992
G1 X90.102 Y70.071 E0.00992
G1 X90.416 Y70.106 E0.00992
G1 X90.714 Y70.211 E0.00992
G1 X90.982 Y70.379 E0.00992
G1 X91.206 Y70.603 E0.00992
G1 X91.374 Y70.871 E0.00992
G1 X91.479 Y71.169 E0.00992
G1 X91.514 Y71.484 E0.00992
G1 X91.479 Y71.798 E0.00992
G1 X91.374 Y72.096 E0.00992
G1 X91.206 Y72.364 E0.00992
G1 X90.982 Y72.588 E0.00992
G1 X90.714 Y72.756 E0.00992
G1 X90.416 Y72.861 E0.00992
G1 X90.102 Y72.896 E0.00992
G1 X89.787 Y72.861 E0.00992
G1 X89.489 Y72.756 E0.00992
G1 X89.221 Y72.588 E0.00992
G1 X88.997 Y72.364 E0.00992
G1 X88.861 Y72.147 E0.00804
M204 S1250
G1 X88.513 Y72.073 F9000.000
G1 E-2.24000 F4200.00000
G1 F7200.000
G1 X88.724 Y71.798 E-0.20784
G1 X88.689 Y71.484 E-0.17529
G1 X88.724 Y71.169 E-0.17530
G1 X88.829 Y70.871 E-0.17529
G1 X88.997 Y70.603 E-0.17529
G1 X89.001 Y70.599 E-0.00298
G1 E-0.04800 F4200.00000
G1 Z0.400 F9000.000
G1 X104.772 Y80.314
G1 Z0.200
G1 E3.20000 F2400.00000
M204 S800
